!!!OTL: Die dienende Schwester Es wohnt ein Markgraf an dem Rhein,
!!!ARE: Europa, Osteuropa, UdSSR, Bessarabien
!!!YOR: 4, S. 111
!!    ????
!!!SCT: Q0075Y
!!!YEM: Copyright 1995, estate of Helmut Schaffrath.
**kern
*ICvox
*Ivox
*M3/4
*k[b-]
*F:
{8f
8f
8a
=1
4cc
4cc
8b-
8a
=2
4.g}
{8cc
8b-
8a
=3
4g
4f
8g
8a
=4
4f
8r}
{8g
8a
8a
=5
4.a
8dd
8cc
8b-
=6
2cc
8cc
8b-
=7
4a
8r}
==
!!!AGN: Ballade, Adelige als Dienstmagd, Tod; Kinder - Spiel, Tanz
!!!ONB: ESAC (Essen Associative Code) Database: BALLADE
!!!AMT: simple triple
!!!AIN: vox
!!!EED: Helmut Schaffrath
!!!EEV: 1.0
*-
